!!!COM: Felix Mendelssohn
!!!CNT: Deutsch
!!!TXO: Deutsch
!!!OTL: Reiselied
!!!LYR: Egon Ebert
!!!OPS: Op. 19
!!!ONM: No. 6
!!!ENC: Daniel Alt & Leigh VanHandel
!!!YOR: Sa2mmtliche Lieder fu2r eine Singstimme 
!!!YOR: Neu revidirt von Dr. L. Benda, Ausgabe fu2r mittlere Stimme
!!!YOR: Braunschweig. Henry Litolff's Verlag. Boston and New York: Arthur P. Schmidt.
!!!ODT: 1830/
**kern	**silbe
*staff1	*
=1-	=1
*clefG2	*
*k[f#c#]	*
*M6/8	*
2.r	.
=2	=2
2.r	.
=3	=3
2.r	.
=4	=4
2.r	.
=5	=5
2.r	.
=6	=6
2.r	.
=7	=7
2.r	.
=8	=8
2.r	.
=9	=9
2.r	.
=10	=10
{[4.a	{Brin-
8a]	|
8f#	-get
8g	des
=11	=11
4.a	treu'-
8ccn	|
8b	|
8a	-sten
=12	=12
4dd	Her-
8ccn	|
4b	-zens
8a	|
=13	=13
4.a	Gru2-
4g}	-sse,}
8r	.
=14	=14
{[4.b	{ei-
8b]	|
8g	-len-
8e	-de
=15	=15
[4.b	Wel-
8b]	|
8g	|
8f#	-len,
=16	=16
4e	zu
8f#	|
4a	ihr
8g	|
=17	=17
4f#}	hin;}
8r	.
4r	.
8r	.
=18	=18
{[4.a	{sagt,
8a]	|
8f#	wie
8g	ich
=19	=19
4a	je-
8ccn	|
4ee	-des
8dd	|
=20	=20
4ff#	Glu2ck
8ee	|
4dd	ver-
8cc#	|
=21	=21
4.cc#	-mis-
4b}	-se,}
8r	.
=22	=22
{4dd	{seit
8ccn	|
4b	ich
8a	von
=23	=23
4.a	ihr
4.g#	ge-
=24	=24
4dd	-schie-
8ccn	|
4b	-den
8a	|
=25	=25
4.a	bin,
4g#}	|}
8r	.
=26	=26
{[2.ee	{seit
=27	=27
4ee]	|
8b	|
4a	ich
8g	von
=28	=28
4.f#	ihr
4.f#	ge-
=29	=29
[4.b	-schie-
4b]	|
8g	-den
=30	=30
4e}	bin.}
8r	.
4r	.
8r	.
=31	=31
{4.a	{Hier
4.a	em-
=32	=32
4.ccn	-pfind'
4.a	ich
=33	=33
4.ccn	al-
4.a	-le
=34	=34
4.ff#	Schmer-
4ccn}	-zen,}
8r	.
=35	=35
{4.b	{dort
4.a	ver-
=36	=36
4.g	-gass
4.g	ich
=37	=37
[4.b	je-
4b]	|
8a	-des
=38	=38
4.g}	Leid,}
4r	.
8r	.
=39	=39
{4.e	{Aug'
4.f#	in
=40	=40
4.g	Au-
4.g#	-ge,
=41	=41
4.a	Herz
4.b	an
=42	=42
4.cc#	Her-
4.cc#}	-zen,}
=43	=43
{4ee	{ach,
8dd	|
4cc#	es
8b	|
=44	=44
4b	war
8a	|
4g	wohl
8f#	|
=45	=45
4.a	scho2-
4g	|
8e	-ne
=46	=46
4d}	Zeit!}
8r	.
4r	.
8r	.
=47	=47
{[4.a	{Auf'
8a]	|
8g	|
8f#	in
=48	=48
4f#	Au-
8g	|
4g	-ge,
8r	.
=49	=49
[4.b	Herz
8b]	|
8a	|
8g#	an
=50	=50
4g#	Her-
8a	|
4a}	-zen
8r	.
=51	=51
{4dd	{ach,
8r	.
4cc#	es
8r	.
=52	=52
4b	war
8r	.
4a	wohl
8r	.
=53	=53
4g	scho2-
8r	.
4e	-ne
8r	.
=54	=54
[4.a	Zeit,
8a]}	|}
8r	.
8r	.
=55	=55
{[4.dd	{ach,
4dd]	|
8cc#	es
=56	=56
cc#q	war
[4.b	|
8b]	|
8r	.
8a	wohl
=57	=57
aq	scho2-
[4.g	|
8g]	|
8r	.
8e	-ne
=58	=58
4.d}	Zeit!}
4r	.
8r	.
=59	=59
2.r	.
=60	=60
2.r	.
=61	=61
2.r	.
=62	=62
2.r	.
=63	=63
2.r	.
=64	=64
2.r	.
=65	=65
2.r	.
=66	=66
2.r	.
=67	=67
{[4.a	{Und
8a]	|
8f#	|
8g	so
=68	=68
4.a	ru-
8cc#	|
8b	|
8a	-fen
=69	=69
4dd	neu-
8cc#	|
4b	-e
8a	|
=70	=70
4.a	Stel-
4g}	-len}
8r	.
=71	=71
{4.b	{nur
8b	|
8g	|
8e	die
=72	=72
[4.b	al-
8b]	|
8g	|
8f#	-ten
=73	=73
4e	mir
8f#	|
4a	em-
8g	|
=74	=74
4f#}	-por,}
8r	.
4r	.
8r	.
=75	=75
{[4.a	{und
8a]	|
8f#	|
8g	es
=76	=76
4a	blickt
8cc#	|
4ee	aus
8dd	|
=77	=77
4ff#	Wald
8ee	|
4dd	und
8cc#	|
=78	=78
4.cc#	Wel-
4b}	-len}
8r	.
=79	=79
{4dd	{nur
8ccn	|
4b	ihr
8a	|
=80	=80
4.a	lie-
4.g#	-bes
=81	=81
4dd	Bild
8ccn	|
4b	her-
8a	|
=82	=82
4.a	-vor,
4g#}	|}
8r	.
=83	=83
{[2.ee	{nur
=84	=84
4ee]	|
8b	|
4a	ihr
8g	|
=85	=85
4.f#	lie-
4.f#	-bes
=86	=86
[4.b	Bild
4b]	|
8g	her-
=87	=87
4e}	-vor;}
8r	.
4r	.
8r	.
=88	=88
{4.a	{Al-
4.a	-les
=89	=89
4.ccn	mahnt
4.a	nur
=90	=90
4.ccn	an
4.a	die
=91	=91
4.ff#	su2-
4ccn}	-sse,}
8r	.
=92	=92
{4.b	{die
4.a	ent-
=93	=93
4.g	-schwund'-
4.g	-ne
=94	=94
[4.b	Fro2h-
4b]	|
8a	-lich-
=95	=95
4.g}	-keit.}
4r	.
8r	.
=96	=96
{4.e	{Bringt
4.f#	dem
=97	=97
4.g	treu-
4.g#	-en
=98	=98
4.a	Her-
4.b	-zen
=99	=99
4.cc#	Gru2-
4.cc#}	-sse,}
=100	=100
{4ee	{ach,
8dd	|
4cc#	es
8b	|
=101	=101
4b	war
8a	|
4g	wohl
8f#	|
=102	=102
4.a	scho2-
4g	|
8e	-ne
=103	=103
4d}	Zeit!}
8r	.
4r	.
8r	.
=104	=104
{[4.a	{Bringt
8a]	|
8g	|
8f#	dem
=105	=105
4f#	treu-
8g	|
4g}	-en
8r	.
=106	=106
{[4.b	{Her-
8b]	|
8a	|
8g#	-zen
=107	=107
4g#	Gru2-
8a	|
4a}	-sse,}
8r	.
=108	=108
{4dd	{ach,
8r	.
4cc#	es
8r	.
=109	=109
4b	war
8r	.
4a	wohl
8r	.
=110	=110
4g	scho2-
8r	.
4e	-ne
8r	.
=111	=111
[4.a	Zeit,
8a]}	|}
8r	.
8r	.
=112	=112
{[4.dd	{ach,
4dd]	|
8cc#	es
=113	=113
cc#q	war
[4.b	|
8b]	|
8r	.
8a	wohl
=114	=114
aq	scho2-
[4.g	|
8g]	|
8r	.
8e	-ne
=115	=115
4.d}	Zeit!}
4r	.
8r	.
==	==
*-	*-